svg/backtohome2.svg

<svg width="141" height="44" viewBox="0 0 141 44" fill="none" xmlns="http://www.w3.org/2000/svg">
<rect x="0.5" width="140" height="44" rx="4" fill="#00B96B"/>
<path d="M26.3412 21.4457H16.0132L18.7332 18.7258C18.8427 18.6215 18.9048 18.477 18.9048 18.3258C18.9048 18.1745 18.8427 18.03 18.7332 17.9258C18.629 17.8162 18.4844 17.7542 18.3332 17.7542C18.1819 17.7542 18.0374 17.8162 17.9332 17.9258L14.2612 21.6057C14.2154 21.6545 14.1752 21.7082 14.1412 21.7657C14.0851 21.9043 14.0851 22.0592 14.1412 22.1977C14.1718 22.2721 14.2122 22.342 14.2612 22.4057L17.9412 26.0777C18.0465 26.1852 18.1907 26.2458 18.3412 26.2457C18.4894 26.2464 18.6314 26.1856 18.7332 26.0777C18.8427 25.9735 18.9048 25.829 18.9048 25.6777C18.9048 25.5265 18.8427 25.382 18.7332 25.2777L16.0132 22.5657H26.3412C26.6504 22.5657 26.9012 22.315 26.9012 22.0057C26.9012 21.6965 26.6504 21.4457 26.3412 21.4457Z" fill="white"/>
<path d="M37.5043 27H41.6257C43.9574 27 45.1009 25.8118 45.1009 24.2259C45.1009 22.6847 44.0071 21.7798 42.9233 21.7251V21.6257C43.9176 21.392 44.7031 20.696 44.7031 19.4581C44.7031 17.9418 43.6094 16.8182 41.402 16.8182H37.5043V27ZM39.3487 25.4588V22.4759H41.3821C42.5206 22.4759 43.2266 23.1719 43.2266 24.0817C43.2266 24.892 42.6697 25.4588 41.3324 25.4588H39.3487ZM39.3487 21.1484V18.3395H41.2131C42.2969 18.3395 42.8587 18.9112 42.8587 19.6967C42.8587 20.5916 42.1328 21.1484 41.1733 21.1484H39.3487ZM48.8233 27.1541C50.0215 27.1541 50.7374 26.5923 51.0655 25.951H51.1252V27H52.8553V21.8892C52.8553 19.8707 51.2097 19.2642 49.753 19.2642C48.1472 19.2642 46.9142 19.9801 46.5165 21.3722L48.1969 21.6108C48.3759 21.0888 48.883 20.6413 49.763 20.6413C50.5982 20.6413 51.0556 21.0689 51.0556 21.8196V21.8494C51.0556 22.3665 50.5137 22.3913 49.1664 22.5355C47.6848 22.6946 46.2679 23.1371 46.2679 24.8572C46.2679 26.3587 47.3667 27.1541 48.8233 27.1541ZM49.2907 25.8317C48.54 25.8317 48.003 25.4886 48.003 24.8274C48.003 24.1364 48.6046 23.848 49.41 23.7337C49.8823 23.669 50.8269 23.5497 51.0605 23.3608V24.2607C51.0605 25.1108 50.3745 25.8317 49.2907 25.8317ZM57.9959 27.1491C59.915 27.1491 61.138 26.0107 61.2672 24.3899H59.5471C59.3929 25.2102 58.8013 25.6825 58.0108 25.6825C56.8873 25.6825 56.1614 24.7429 56.1614 23.1818C56.1614 21.6406 56.9022 20.7159 58.0108 20.7159C58.8759 20.7159 59.4078 21.2727 59.5471 22.0085H61.2672C61.1429 20.353 59.8503 19.2642 57.986 19.2642C55.7488 19.2642 54.3368 20.88 54.3368 23.2116C54.3368 25.5234 55.714 27.1491 57.9959 27.1491ZM62.745 27H64.5447V24.4347L65.201 23.7337L67.5376 27H69.6903L66.5582 22.6598L69.5163 19.3636H67.4134L64.669 22.4311H64.5447V16.8182H62.745V27ZM78.0016 19.3636H76.4952V17.5341H74.6955V19.3636H73.6117V20.7557H74.6955V25.0014C74.6855 26.4382 75.7296 27.1442 77.0819 27.1044C77.5939 27.0895 77.9469 26.9901 78.1408 26.9254L77.8375 25.5185C77.7381 25.5433 77.5343 25.5881 77.3105 25.5881C76.8581 25.5881 76.4952 25.429 76.4952 24.7031V20.7557H78.0016V19.3636ZM82.7557 27.1491C84.9929 27.1491 86.4148 25.5732 86.4148 23.2116C86.4148 20.8452 84.9929 19.2642 82.7557 19.2642C80.5185 19.2642 79.0966 20.8452 79.0966 23.2116C79.0966 25.5732 80.5185 27.1491 82.7557 27.1491ZM82.7656 25.7074C81.5277 25.7074 80.9212 24.6037 80.9212 23.2067C80.9212 21.8097 81.5277 20.6911 82.7656 20.6911C83.9837 20.6911 84.5902 21.8097 84.5902 23.2067C84.5902 24.6037 83.9837 25.7074 82.7656 25.7074ZM93.2147 22.5256C93.2147 21.4219 93.9007 20.7855 94.8652 20.7855C95.8098 20.7855 96.3667 21.3871 96.3667 22.4162V27H98.1664V22.1378C98.1664 20.2933 97.1223 19.2642 95.5364 19.2642C94.3631 19.2642 93.6174 19.7962 93.2644 20.6612H93.1749V16.8182H91.415V27H93.2147V22.5256ZM103.332 27.1491C105.569 27.1491 106.991 25.5732 106.991 23.2116C106.991 20.8452 105.569 19.2642 103.332 19.2642C101.095 19.2642 99.6728 20.8452 99.6728 23.2116C99.6728 25.5732 101.095 27.1491 103.332 27.1491ZM103.342 25.7074C102.104 25.7074 101.497 24.6037 101.497 23.2067C101.497 21.8097 102.104 20.6911 103.342 20.6911C104.56 20.6911 105.166 21.8097 105.166 23.2067C105.166 24.6037 104.56 25.7074 103.342 25.7074ZM108.518 27H110.318V22.3565C110.318 21.4169 110.945 20.7805 111.72 20.7805C112.481 20.7805 113.003 21.2926 113.003 22.0781V27H114.768V22.2372C114.768 21.3771 115.28 20.7805 116.15 20.7805C116.876 20.7805 117.452 21.2081 117.452 22.1527V27H119.257V21.8743C119.257 20.169 118.273 19.2642 116.871 19.2642C115.762 19.2642 114.917 19.8111 114.579 20.6612H114.499C114.206 19.7962 113.465 19.2642 112.436 19.2642C111.412 19.2642 110.646 19.7912 110.328 20.6612H110.239V19.3636H108.518V27ZM124.464 27.1491C126.243 27.1491 127.466 26.2791 127.785 24.9517L126.104 24.7628C125.861 25.4091 125.264 25.7472 124.488 25.7472C123.325 25.7472 122.555 24.9815 122.54 23.674H127.859V23.1222C127.859 20.4425 126.248 19.2642 124.369 19.2642C122.182 19.2642 120.755 20.87 120.755 23.2266C120.755 25.6229 122.162 27.1491 124.464 27.1491ZM122.545 22.4609C122.599 21.4865 123.32 20.6662 124.394 20.6662C125.428 20.6662 126.124 21.4219 126.134 22.4609H122.545Z" fill="white"/>
</svg>

<?xml version="1.0" encoding="utf-8"?>
<!-- Generator: Adobe Illustrator 26.0.1, SVG Export Plug-In . SVG Version: 6.00 Build 0)  -->
<svg version="1.1" id="Layer_1" xmlns="http://www.w3.org/2000/svg" xmlns:xlink="http://www.w3.org/1999/xlink" x="0px" y="0px"
	 viewBox="0 0 141 44" style="enable-background:new 0 0 141 44;" xml:space="preserve">
<style type="text/css">
	.st0{fill:#00B96B;}
	.st1{fill:#FFFFFF;}
</style>
<path class="st0" d="M4.5,0h132c2.2,0,4,1.8,4,4v36c0,2.2-1.8,4-4,4H4.5c-2.2,0-4-1.8-4-4V4C0.5,1.8,2.3,0,4.5,0z"/>
<path class="st1" d="M26.3,21.4H16l2.7-2.7c0.1-0.1,0.2-0.2,0.2-0.4c0-0.2-0.1-0.3-0.2-0.4c-0.1-0.1-0.2-0.2-0.4-0.2
	c-0.2,0-0.3,0.1-0.4,0.2l-3.7,3.7c0,0-0.1,0.1-0.1,0.2c-0.1,0.1-0.1,0.3,0,0.4c0,0.1,0.1,0.1,0.1,0.2l3.7,3.7
	c0.1,0.1,0.2,0.2,0.4,0.2c0.1,0,0.3-0.1,0.4-0.2c0.1-0.1,0.2-0.2,0.2-0.4c0-0.2-0.1-0.3-0.2-0.4L16,22.6h10.3c0.3,0,0.6-0.3,0.6-0.6
	C26.9,21.7,26.7,21.4,26.3,21.4z"/>
<path class="st1" d="M37.5,27h4.1c2.3,0,3.5-1.2,3.5-2.8c0-1.5-1.1-2.4-2.2-2.5v-0.1c1-0.2,1.8-0.9,1.8-2.2c0-1.5-1.1-2.6-3.3-2.6
	h-3.9V27z M39.3,25.5v-3h2c1.1,0,1.8,0.7,1.8,1.6c0,0.8-0.6,1.4-1.9,1.4H39.3z M39.3,21.1v-2.8h1.9c1.1,0,1.6,0.6,1.6,1.4
	c0,0.9-0.7,1.5-1.7,1.5H39.3z M48.8,27.2c1.2,0,1.9-0.6,2.2-1.2h0.1v1h1.7v-5.1c0-2-1.6-2.6-3.1-2.6c-1.6,0-2.8,0.7-3.2,2.1l1.7,0.2
	c0.2-0.5,0.7-1,1.6-1c0.8,0,1.3,0.4,1.3,1.2v0c0,0.5-0.5,0.5-1.9,0.7c-1.5,0.2-2.9,0.6-2.9,2.3C46.3,26.4,47.4,27.2,48.8,27.2z
	 M49.3,25.8c-0.8,0-1.3-0.3-1.3-1c0-0.7,0.6-1,1.4-1.1c0.5-0.1,1.4-0.2,1.7-0.4v0.9C51.1,25.1,50.4,25.8,49.3,25.8z M58,27.1
	c1.9,0,3.1-1.1,3.3-2.8h-1.7c-0.2,0.8-0.7,1.3-1.5,1.3c-1.1,0-1.8-0.9-1.8-2.5c0-1.5,0.7-2.5,1.8-2.5c0.9,0,1.4,0.6,1.5,1.3h1.7
	c-0.1-1.7-1.4-2.7-3.3-2.7c-2.2,0-3.6,1.6-3.6,3.9C54.3,25.5,55.7,27.1,58,27.1z M62.7,27h1.8v-2.6l0.7-0.7l2.3,3.3h2.2l-3.1-4.3
	l3-3.3h-2.1l-2.7,3.1h-0.1v-5.6h-1.8V27z M78,19.4h-1.5v-1.8h-1.8v1.8h-1.1v1.4h1.1V25c0,1.4,1,2.1,2.4,2.1c0.5,0,0.9-0.1,1.1-0.2
	l-0.3-1.4c-0.1,0-0.3,0.1-0.5,0.1c-0.5,0-0.8-0.2-0.8-0.9v-3.9H78V19.4z M82.8,27.1c2.2,0,3.7-1.6,3.7-3.9c0-2.4-1.4-3.9-3.7-3.9
	s-3.7,1.6-3.7,3.9C79.1,25.6,80.5,27.1,82.8,27.1z M82.8,25.7c-1.2,0-1.8-1.1-1.8-2.5c0-1.4,0.6-2.5,1.8-2.5c1.2,0,1.8,1.1,1.8,2.5
	C84.6,24.6,84,25.7,82.8,25.7z M93.2,22.5c0-1.1,0.7-1.7,1.7-1.7c0.9,0,1.5,0.6,1.5,1.6V27h1.8v-4.9c0-1.8-1-2.9-2.6-2.9
	c-1.2,0-1.9,0.5-2.3,1.4h-0.1v-3.8h-1.8V27h1.8V22.5z M103.3,27.1c2.2,0,3.7-1.6,3.7-3.9c0-2.4-1.4-3.9-3.7-3.9s-3.7,1.6-3.7,3.9
	C99.7,25.6,101.1,27.1,103.3,27.1z M103.3,25.7c-1.2,0-1.8-1.1-1.8-2.5c0-1.4,0.6-2.5,1.8-2.5c1.2,0,1.8,1.1,1.8,2.5
	C105.2,24.6,104.6,25.7,103.3,25.7z M108.5,27h1.8v-4.6c0-0.9,0.6-1.6,1.4-1.6c0.8,0,1.3,0.5,1.3,1.3V27h1.8v-4.8
	c0-0.9,0.5-1.5,1.4-1.5c0.7,0,1.3,0.4,1.3,1.4V27h1.8v-5.1c0-1.7-1-2.6-2.4-2.6c-1.1,0-2,0.5-2.3,1.4h-0.1c-0.3-0.9-1-1.4-2.1-1.4
	c-1,0-1.8,0.5-2.1,1.4h-0.1v-1.3h-1.7V27z M124.5,27.1c1.8,0,3-0.9,3.3-2.2l-1.7-0.2c-0.2,0.6-0.8,1-1.6,1c-1.2,0-1.9-0.8-1.9-2.1
	h5.3v-0.6c0-2.7-1.6-3.9-3.5-3.9c-2.2,0-3.6,1.6-3.6,4C120.8,25.6,122.2,27.1,124.5,27.1z M122.5,22.5c0.1-1,0.8-1.8,1.8-1.8
	c1,0,1.7,0.8,1.7,1.8H122.5z"/>
</svg>
